X:1
T:the Five Stringed Fiddle
T:the Five Stringed Fiddle
T:Nigel Gatherer
C:Nigel Gatherer
L:1/8
M:3/4
K:D
V:1 treble 
V:1
 A,2 |"D" D4 FG | A4 D2 |"G" B2 c2 d2 |"D" F A3 D2 |"Em" G3 ABG |"D" F4 D2 |"E7" B, E3 D2 | %8
"A7" C A3 A,2 |"D" D4 FG | A4 D2 |"G" B2 c2 d2 |"D" F A3 D2 |"Em" G3 ABG |"D" F3 EDF |"A7" E3 DCE | %16
"D" D4 || AB/c/ |"D" d2 f3 d |"A7" c2 e3 c |"G" B3 cdB |"D" A F3 D2 |"Em" G3 ABG |"D" F4 D2 | %24
"E7" B,2 E3 D |"A7" C2 A3 G |"D" F2 d3 F |"Em" G2 e3 G |"A7" A3 ceg |"D" f3 dAF |"Em" G3 Beg | %31
"D" f3 edc |"A7" e2 d3 c |"D" d4 |] %34

